images/logo.svg

<svg fill="none" height="24" viewBox="0 0 175 24" width="175" xmlns="http://www.w3.org/2000/svg"><path clip-rule="evenodd" d="m12 24c6.6274 0 12-5.3726 12-12 0-6.62742-5.3726-12-12-12-6.62742 0-12 5.37258-12 12 0 6.6274 5.37258 12 12 12zm-5.625-13.25c.75939 0 1.375-.6156 1.375-1.375 0-.75939-.61561-1.375-1.375-1.375s-1.375.61561-1.375 1.375c0 .7594.61561 1.375 1.375 1.375zm14.375-1.375c0 .7594-.6156 1.375-1.375 1.375s-1.375-.6156-1.375-1.375c0-.75939.6156-1.375 1.375-1.375s1.375.61561 1.375 1.375zm-11.238 7.653c.37333.1027.7653.154 1.176.154.364 0 .7233-.0513 1.078-.154.364-.0933.686-.252.966-.476.2893-.2333.5227-.5413.7-.924.1773-.392.266-.882.266-1.47v-6.496h-2.268v6.398c0 .4573-.1167.7887-.35.994s-.546.308-.938.308c-.27067 0-.53667-.0747-.798-.224s-.55067-.3313-.868-.546v2.072c.31733.1493.66267.2707 1.036.364z" fill="#ff512f" fill-rule="evenodd"/><path d="m35.84 18.76c-.5867 0-1.1467-.0733-1.68-.22-.5333-.1333-1.0267-.3067-1.48-.52v-2.96c.4533.3067.8667.5667 1.24.78s.7533.32 1.14.32c.56 0 1.0067-.1467 1.34-.44s.5-.7667.5-1.42v-9.14h3.24v9.28c0 .84-.1267 1.54-.38 2.1-.2533.5467-.5867.9867-1 1.32-.4.32-.86.5467-1.38.68-.5067.1467-1.02.22-1.54.22zm11.7308.04c-.6134 0-1.1934-.06-1.74-.18-.5334-.1067-1.0067-.2867-1.42-.54-.4-.2667-.7134-.62-.94-1.06-.2267-.4533-.34-1.0133-.34-1.68 0-.6267.1266-1.1733.38-1.64.2666-.4667.6666-.8267 1.2-1.08.5333-.2533 1.2066-.38 2.02-.38.4533 0 .8933.0467 1.32.14.4266.0933.8066.22 1.14.38.3466.16.62.3333.82.52l.12 1.44c-.2667-.16-.5867-.2867-.96-.38-.3734-.0933-.7734-.14-1.2-.14-.6534 0-1.1334.1-1.44.3-.2934.1867-.44.4867-.44.9 0 .2533.0733.48.22.68.1466.2.34.3533.58.46.2533.1067.5133.16.78.16.68 0 1.1533-.0467 1.42-.14.28-.0933.42-.28.42-.56v-3.72c0-.6133-.2-1.0533-.6-1.32-.3867-.28-.94-.42-1.66-.42-.5867 0-1.18.1067-1.78.32-.5867.2-1.0667.4467-1.44.74v-2.64c.3466-.21333.88-.41333 1.6-.6.7333-.18667 1.5533-.28 2.46-.28.32 0 .6733.02667 1.06.08.3866.05333.7733.15333 1.16.3.3866.13333.74.33333 1.06.6.3333.26667.6.60667.8 1.02.2.4133.3.9267.3 1.54l-.02 4.78c0 .5733-.1934 1.04-.58 1.4-.3867.3467-.9467.6-1.68.76-.72.16-1.5934.24-2.62.24zm11.3453 0c-.72 0-1.34-.08-1.86-.24-.5067-.1467-.9867-.3133-1.44-.5v-2.62c.28.1867.5933.38.94.58.3467.1867.7267.34 1.14.46.4267.12.8733.18 1.34.18.48 0 .8133-.08 1-.24.2-.1733.3-.38.3-.62 0-.2267-.1-.4067-.3-.54-.2-.1467-.46-.2667-.78-.36s-.66-.18-1.02-.26c-.32-.0667-.64-.1667-.96-.3-.32-.1467-.6067-.34-.86-.58s-.46-.5333-.62-.88c-.1467-.36-.22-.7933-.22-1.3 0-.6533.1267-1.1933.38-1.62.2533-.44.5867-.79333 1-1.06s.86-.45333 1.34-.56c.48-.12.9467-.17333 1.4-.16.8267.02667 1.48.12 1.96.28.4933.14667.94.34 1.34.58v2.34c-.4533-.2533-.9067-.4867-1.36-.7-.44-.2267-.9467-.34-1.52-.34-.52 0-.8933.08-1.12.24s-.34.3733-.34.64c0 .2533.0733.4533.22.6.16.1467.3667.2667.62.36.2533.08.5333.16.84.24.3333.08.6733.18 1.02.3.36.1067.6933.2667 1 .48.32.2.5733.4867.76.86.2.36.3.84.3 1.44-.0133.8133-.2333 1.4667-.66 1.96-.4267.48-.98.8267-1.66 1.04-.6667.2-1.3933.3-2.18.3zm16.8484-7.1v6.8h-2.98v-6.2c0-.2533-.04-.4867-.12-.7-.0666-.2133-.1733-.3933-.32-.54-.1466-.16-.3466-.28-.6-.36-.2533-.0933-.56-.14-.92-.14-.3066 0-.5933.04-.86.12-.2533.0667-.46.14-.62.22v7.6h-2.98v-9.26c.2534-.13333.5867-.26667 1-.4.4134-.14667.8667-.27333 1.36-.38.4934-.10667.9867-.19333 1.48-.26.5067-.06667.9734-.1 1.4-.1.9067 0 1.6667.12 2.28.36.6267.22667 1.0934.6 1.4 1.12.32.52.48 1.2267.48 2.12zm-3.06-1.78c.4134-.36.9134-.67333 1.5-.94.5867-.28 1.2067-.49333 1.86-.64.6534-.16 1.26-.24 1.82-.24.9067 0 1.6667.12 2.28.36.6267.22667 1.0934.6 1.4 1.12.32.52.48 1.2267.48 2.12v6.8h-2.98v-6.2c0-.2533-.04-.4867-.12-.7-.0666-.2133-.1733-.3933-.32-.54-.1466-.16-.3466-.28-.6-.36-.2533-.0933-.56-.14-.92-.14-.3066 0-.5933.0467-.86.14-.2533.08-.46.1867-.62.32zm12.8403 8.58v-9.98h2.98l.02 9.98zm-.06-11.5v-2.3h3.08v2.3zm6.5227 2.24c.2533-.13333.5867-.26667 1-.4.4133-.14667.8667-.27333 1.36-.38s.9867-.19333 1.48-.26c.5067-.06667.9733-.1 1.4-.1.9067 0 1.68.12 2.32.36.6405.22667 1.1265.6 1.4605 1.12.346.52.52 1.2267.52 2.12v6.8h-2.9805v-6.2c0-.2533-.04-.4867-.12-.7-.0667-.2133-.1733-.3933-.32-.54-.1467-.16-.3467-.28-.6-.36-.2533-.0933-.56-.14-.92-.14-.3067 0-.6133.04-.92.12-.3067.0667-.54.14-.7.22v7.6h-2.98zm17.5675 9.56c-1.013 0-1.913-.2067-2.7-.62-.773-.4267-1.38-1.0267-1.82-1.8-.427-.7867-.64-1.72-.64-2.8 0-1.76.433-3.12 1.3-4.08.88-.97333 2.133-1.46 3.76-1.46 1.12 0 2.02.24 2.7.72.693.48 1.2 1.18 1.52 2.1s.473 2.04.46 3.36h-7.7l-.32-1.9h5.56l-.44.94c-.013-1.08-.167-1.84-.46-2.28s-.773-.66-1.44-.66c-.373 0-.713.0933-1.02.28-.293.1867-.527.5-.7.94-.16.4267-.24 1.02-.24 1.78 0 .96.227 1.7.68 2.22.467.52 1.207.78 2.22.78.373 0 .74-.04 1.1-.12.373-.0933.72-.2 1.04-.32s.593-.2267.82-.32v2.56c-.48.2-1.02.36-1.62.48-.587.1333-1.273.2-2.06.2z" fill="#111"/></svg>

<svg width="175" height="24" viewBox="0 0 175 24" fill="none" xmlns="http://www.w3.org/2000/svg">
<path fill-rule="evenodd" clip-rule="evenodd" d="M12 24C18.6274 24 24 18.6274 24 12C24 5.37258 18.6274 0 12 0C5.37258 0 0 5.37258 0 12C0 18.6274 5.37258 24 12 24ZM6.375 10.75C7.13439 10.75 7.75 10.1344 7.75 9.375C7.75 8.61561 7.13439 8 6.375 8C5.61561 8 5 8.61561 5 9.375C5 10.1344 5.61561 10.75 6.375 10.75ZM20.75 9.375C20.75 10.1344 20.1344 10.75 19.375 10.75C18.6156 10.75 18 10.1344 18 9.375C18 8.61561 18.6156 8 19.375 8C20.1344 8 20.75 8.61561 20.75 9.375ZM9.512 17.028C9.88533 17.1307 10.2773 17.182 10.688 17.182C11.052 17.182 11.4113 17.1307 11.766 17.028C12.13 16.9347 12.452 16.776 12.732 16.552C13.0213 16.3187 13.2547 16.0107 13.432 15.628C13.6093 15.236 13.698 14.746 13.698 14.158V7.662H11.43V14.06C11.43 14.5173 11.3133 14.8487 11.08 15.054C10.8467 15.2593 10.534 15.362 10.142 15.362C9.87133 15.362 9.60533 15.2873 9.344 15.138C9.08267 14.9887 8.79333 14.8067 8.476 14.592V16.664C8.79333 16.8133 9.13867 16.9347 9.512 17.028Z" fill="#FF512F"/>
<path d="M35.84 18.76C35.2533 18.76 34.6933 18.6867 34.16 18.54C33.6267 18.4067 33.1333 18.2333 32.68 18.02V15.06C33.1333 15.3667 33.5467 15.6267 33.92 15.84C34.2933 16.0533 34.6733 16.16 35.06 16.16C35.62 16.16 36.0667 16.0133 36.4 15.72C36.7333 15.4267 36.9 14.9533 36.9 14.3V5.16H40.14V14.44C40.14 15.28 40.0133 15.98 39.76 16.54C39.5067 17.0867 39.1733 17.5267 38.76 17.86C38.36 18.18 37.9 18.4067 37.38 18.54C36.8733 18.6867 36.36 18.76 35.84 18.76ZM47.5708 18.8C46.9574 18.8 46.3774 18.74 45.8308 18.62C45.2974 18.5133 44.8241 18.3333 44.4108 18.08C44.0108 17.8133 43.6974 17.46 43.4708 17.02C43.2441 16.5667 43.1308 16.0067 43.1308 15.34C43.1308 14.7133 43.2574 14.1667 43.5108 13.7C43.7774 13.2333 44.1774 12.8733 44.7108 12.62C45.2441 12.3667 45.9174 12.24 46.7308 12.24C47.1841 12.24 47.6241 12.2867 48.0508 12.38C48.4774 12.4733 48.8574 12.6 49.1908 12.76C49.5374 12.92 49.8108 13.0933 50.0108 13.28L50.1308 14.72C49.8641 14.56 49.5441 14.4333 49.1708 14.34C48.7974 14.2467 48.3974 14.2 47.9708 14.2C47.3174 14.2 46.8374 14.3 46.5308 14.5C46.2374 14.6867 46.0908 14.9867 46.0908 15.4C46.0908 15.6533 46.1641 15.88 46.3108 16.08C46.4574 16.28 46.6508 16.4333 46.8908 16.54C47.1441 16.6467 47.4041 16.7 47.6708 16.7C48.3508 16.7 48.8241 16.6533 49.0908 16.56C49.3708 16.4667 49.5108 16.28 49.5108 16V12.28C49.5108 11.6667 49.3108 11.2267 48.9108 10.96C48.5241 10.68 47.9708 10.54 47.2508 10.54C46.6641 10.54 46.0708 10.6467 45.4708 10.86C44.8841 11.06 44.4041 11.3067 44.0308 11.6V8.96C44.3774 8.74667 44.9108 8.54667 45.6308 8.36C46.3641 8.17333 47.1841 8.08 48.0908 8.08C48.4108 8.08 48.7641 8.10667 49.1508 8.16C49.5374 8.21333 49.9241 8.31333 50.3108 8.46C50.6974 8.59333 51.0508 8.79333 51.3708 9.06C51.7041 9.32667 51.9708 9.66667 52.1708 10.08C52.3708 10.4933 52.4708 11.0067 52.4708 11.62L52.4508 16.4C52.4508 16.9733 52.2574 17.44 51.8708 17.8C51.4841 18.1467 50.9241 18.4 50.1908 18.56C49.4708 18.72 48.5974 18.8 47.5708 18.8ZM58.9161 18.8C58.1961 18.8 57.5761 18.72 57.0561 18.56C56.5494 18.4133 56.0694 18.2467 55.6161 18.06V15.44C55.8961 15.6267 56.2094 15.82 56.5561 16.02C56.9028 16.2067 57.2828 16.36 57.6961 16.48C58.1228 16.6 58.5694 16.66 59.0361 16.66C59.5161 16.66 59.8494 16.58 60.0361 16.42C60.2361 16.2467 60.3361 16.04 60.3361 15.8C60.3361 15.5733 60.2361 15.3933 60.0361 15.26C59.8361 15.1133 59.5761 14.9933 59.2561 14.9C58.9361 14.8067 58.5961 14.72 58.2361 14.64C57.9161 14.5733 57.5961 14.4733 57.2761 14.34C56.9561 14.1933 56.6694 14 56.4161 13.76C56.1628 13.52 55.9561 13.2267 55.7961 12.88C55.6494 12.52 55.5761 12.0867 55.5761 11.58C55.5761 10.9267 55.7028 10.3867 55.9561 9.96C56.2094 9.52 56.5428 9.16667 56.9561 8.9C57.3694 8.63333 57.8161 8.44667 58.2961 8.34C58.7761 8.22 59.2428 8.16667 59.6961 8.18C60.5228 8.20667 61.1761 8.3 61.6561 8.46C62.1494 8.60667 62.5961 8.8 62.9961 9.04V11.38C62.5428 11.1267 62.0894 10.8933 61.6361 10.68C61.1961 10.4533 60.6894 10.34 60.1161 10.34C59.5961 10.34 59.2228 10.42 58.9961 10.58C58.7694 10.74 58.6561 10.9533 58.6561 11.22C58.6561 11.4733 58.7294 11.6733 58.8761 11.82C59.0361 11.9667 59.2428 12.0867 59.4961 12.18C59.7494 12.26 60.0294 12.34 60.3361 12.42C60.6694 12.5 61.0094 12.6 61.3561 12.72C61.7161 12.8267 62.0494 12.9867 62.3561 13.2C62.6761 13.4 62.9294 13.6867 63.1161 14.06C63.3161 14.42 63.4161 14.9 63.4161 15.5C63.4028 16.3133 63.1828 16.9667 62.7561 17.46C62.3294 17.94 61.7761 18.2867 61.0961 18.5C60.4294 18.7 59.7028 18.8 58.9161 18.8ZM75.7645 11.7V18.5H72.7845V12.3C72.7845 12.0467 72.7445 11.8133 72.6645 11.6C72.5979 11.3867 72.4912 11.2067 72.3445 11.06C72.1979 10.9 71.9979 10.78 71.7445 10.7C71.4912 10.6067 71.1845 10.56 70.8245 10.56C70.5179 10.56 70.2312 10.6 69.9645 10.68C69.7112 10.7467 69.5045 10.82 69.3445 10.9V18.5H66.3645V9.24C66.6179 9.10667 66.9512 8.97333 67.3645 8.84C67.7779 8.69333 68.2312 8.56667 68.7245 8.46C69.2179 8.35333 69.7112 8.26667 70.2045 8.2C70.7112 8.13333 71.1779 8.1 71.6045 8.1C72.5112 8.1 73.2712 8.22 73.8845 8.46C74.5112 8.68667 74.9779 9.06 75.2845 9.58C75.6045 10.1 75.7645 10.8067 75.7645 11.7ZM72.7045 9.92C73.1179 9.56 73.6179 9.24667 74.2045 8.98C74.7912 8.7 75.4112 8.48667 76.0645 8.34C76.7179 8.18 77.3245 8.1 77.8845 8.1C78.7912 8.1 79.5512 8.22 80.1645 8.46C80.7912 8.68667 81.2579 9.06 81.5645 9.58C81.8845 10.1 82.0445 10.8067 82.0445 11.7V18.5H79.0645V12.3C79.0645 12.0467 79.0245 11.8133 78.9445 11.6C78.8779 11.3867 78.7712 11.2067 78.6245 11.06C78.4779 10.9 78.2779 10.78 78.0245 10.7C77.7712 10.6067 77.4645 10.56 77.1045 10.56C76.7979 10.56 76.5112 10.6067 76.2445 10.7C75.9912 10.78 75.7845 10.8867 75.6245 11.02L72.7045 9.92ZM85.5448 18.5V8.52H88.5248L88.5448 18.5H85.5448ZM85.4848 7V4.7H88.5648V7H85.4848ZM92.0075 9.24C92.2608 9.10667 92.5942 8.97333 93.0075 8.84C93.4208 8.69333 93.8742 8.56667 94.3675 8.46C94.8608 8.35333 95.3542 8.26667 95.8475 8.2C96.3542 8.13333 96.8208 8.1 97.2475 8.1C98.1542 8.1 98.9275 8.22 99.5675 8.46C100.208 8.68667 100.694 9.06 101.028 9.58C101.374 10.1 101.548 10.8067 101.548 11.7V18.5H98.5675V12.3C98.5675 12.0467 98.5275 11.8133 98.4475 11.6C98.3808 11.3867 98.2742 11.2067 98.1275 11.06C97.9808 10.9 97.7808 10.78 97.5275 10.7C97.2742 10.6067 96.9675 10.56 96.6075 10.56C96.3008 10.56 95.9942 10.6 95.6875 10.68C95.3808 10.7467 95.1475 10.82 94.9875 10.9V18.5H92.0075V9.24ZM109.575 18.8C108.562 18.8 107.662 18.5933 106.875 18.18C106.102 17.7533 105.495 17.1533 105.055 16.38C104.628 15.5933 104.415 14.66 104.415 13.58C104.415 11.82 104.848 10.46 105.715 9.5C106.595 8.52667 107.848 8.04 109.475 8.04C110.595 8.04 111.495 8.28 112.175 8.76C112.868 9.24 113.375 9.94 113.695 10.86C114.015 11.78 114.168 12.9 114.155 14.22H106.455L106.135 12.32H111.695L111.255 13.26C111.242 12.18 111.088 11.42 110.795 10.98C110.502 10.54 110.022 10.32 109.355 10.32C108.982 10.32 108.642 10.4133 108.335 10.6C108.042 10.7867 107.808 11.1 107.635 11.54C107.475 11.9667 107.395 12.56 107.395 13.32C107.395 14.28 107.622 15.02 108.075 15.54C108.542 16.06 109.282 16.32 110.295 16.32C110.668 16.32 111.035 16.28 111.395 16.2C111.768 16.1067 112.115 16 112.435 15.88C112.755 15.76 113.028 15.6533 113.255 15.56V18.12C112.775 18.32 112.235 18.48 111.635 18.6C111.048 18.7333 110.362 18.8 109.575 18.8Z" fill="#111111"/>
</svg>
